X:2
T:The Sour Milk
C:Sam Burnstone
M:6/8
K:Gmaj
A3 AGE|DGA B3|AGE cBA|cde fdB|A3 AGE|DGA B3|cBA FGA GED D3:|
DFA d2 e|fde fde|DFA d3|b age e2|DFA d2 e|fde fde|AFD BAF|EDD D3:|
